X:68
T:Waltz,A. RHu.069
S:R.Hughes MS,1823,Whitchurch,Shrops.
A:Whitchurch , Shropshire
Z:Neil Brookes 2006
M:3/8
L:1/8
Q:3/8=60
R:Waltz
K:C
CEG|ceg|fdB|c/B/c/d/e|CEG|ceg|fdB|c3::!
G|ceg|gec|g2e/c/|ecG|CEGceg|fdB|c3::!
g3/2a/g/f/|e3/2f/e/d/|ccd|e>fe|g3/2a/g/f/|e3/2f/e/d/|ccd|e3::!
fdd|e/d/e/f/g/e/|fdd|f/d/c/d/e/f/|
g3/2a/f/e/|e3/2f/e/d/|cc/e/d/B/|c3:|

